icons/lines/bucket-square-one.svg

<svg xmlns="http://www.w3.org/2000/svg" width="24" height="24" viewBox="0 0 24 24" fill="none" stroke="currentColor" stroke-width="2" stroke-linecap="round" stroke-linejoin="round" >
  <path d="M8.9398 16.9301L6.10979 14.1C5.16979 13.16 5.16979 12.21 6.10979 11.27L10.8298 6.54999L16.0198 11.74C16.2798 12 16.2798 12.4201 16.0198 12.6801L11.7698 16.9301C10.8298 17.8701 9.8798 17.8701 8.9398 16.9301Z" stroke-miterlimit="10"/>
  <path d="M9.87988 5.59998L10.8299 6.53998" stroke-miterlimit="10"/>
  <path d="M5.43994 12.64L16.1299 12.17" stroke-miterlimit="10"/>
  <path d="M17.2997 14.8101C17.2997 14.8101 15.9897 16.23 15.9897 17.1C15.9897 17.82 16.5797 18.41 17.2997 18.41C18.0197 18.41 18.6097 17.82 18.6097 17.1C18.5997 16.23 17.2997 14.8101 17.2997 14.8101Z"/>
  <path d="M22 15V9C22 4 20 2 15 2H9C4 2 2 4 2 9V15C2 20 4 22 9 22H15C20 22 22 20 22 15Z"/>
  </svg>

<svg xmlns="http://www.w3.org/2000/svg" width="24" height="24" viewBox="0 0 24 24" fill="none" stroke="currentColor" stroke-width="2" stroke-linecap="round" stroke-linejoin="round">
  <path d="M17.3 14.81s-1.31 1.42-1.31 2.29a1.315 1.315 0 0 0 2.62 0c-.01-.87-1.31-2.29-1.31-2.29" />
  <path d="M22 9c0-5-2-7-7-7H9C4 2 2 4 2 9v6c0 5 2 7 7 7h6c5 0 7-2 7-7z" />
  <path d="m5.44 12.64 10.69-.47" />
  <path d="M6.11 14.1c-.94-.94-.94-1.89 0-2.83l4.72-4.72 5.19 5.19a.664.664 0 0 1 0 .94l-4.25 4.25c-.94.94-1.89.94-2.83 0z" />
  <path d="m9.88 5.6.95.94" />
</svg>
